X:1
T:Some Sweet Day My Lord Will Come
T:J. O. Hillyer
T:Some Sweet Day My Lord Will Come
T:Public Domain
T:Public Domain
C:J. O. Hillyer
Z:Public Domain
%%score ( 1 2 ) ( 3 4 )
L:1/8
M:4/4
K:Bb
V:1 treble 
V:2 treble 
V:3 bass 
V:4 bass 
V:1
 [DF]2 [Fd]2 [DB]3 [FB] | (cB)([GB][EG]) [DF]4 | [DF]2 (Bc) [Fd]2 ([Fc][=EB]) | (F2 =E2 _E4) | %4
w: 1.~Some sweet day my|Lord * will * come,|to claim * His own; *|shall * *|
w: 2.~Some sweet day this|bo- * dy * frail,|a mo- * ment’s space, *|be * *|
w: 3.~Some sweet day my|hand * shall * clasp|long gone * be- fore; *|them * *|
 [DF]2 [Fd]2 [FB]3 [FB] | (cB)(BG) [DF]3 [DF] | [EG]2 [Ge]2 [EG]2 [EA]2 | [DB]8 || %8
w: Him face to face,|Be- * fore * the Ad-|||
w: and up- ward caught,|And * stand * be- fore|||
w: my heart with joy,|To * part * a- gain|||
"^Refrain" [Ff]3 [Fd] [Ec][DB] z2 | [Fd]3 [DB] [EG][DF] z2 | [DB]2 (Bc) [Fd]2 ([Fc][=EB]) | [Fc]8 | %12
w: ||||
w: ||||
w: ||||
 [Ff]3 [Fd] [Ec][DB] z2 | [Fd]3 [DB] [EG] [DF]3 | [DB]2 [FB][Fc] [Fd]<[Ff] [Fc]>[Ed] | [DB]8 |] %16
w: ||||
w: ||||
w: ||||
V:2
 x8 | G2 x6 | x2 F2 x4 | c8 | x8 | G2 E2 x4 | x8 | x8 || x8 | x8 | x2 F2 x4 | x8 | x8 | x8 | x8 | %15
w: |Come|I|meet||vent throne.||||||||||
w: |In|Shall|changed||His face.||||||||||
w: |Those|Press|to||no more.||||||||||
 x8 |] %16
w: |
w: |
w: |
V:3
 [B,,B,]2 [B,,B,]2 [B,,B,]3 [D,B,] | [E,B,]2 [E,B,]2 [B,,B,]4 | %2
w: ~ ~ ~ ~|~ ~ ~|
 [B,,B,]2 [D,B,][F,A,] (B,B,,)(A,G,) | (A,2 G,2 A,4) | [B,,B,]2 [B,,B,]2 [B,,B,]3 [D,B,] | %5
w: ~ ~ ~ ~ * ~ *|~ * *|~ ~ ~ ~|
 [E,B,]2 (G,B,) [B,,B,]3 [B,,B,] | [E,B,]2 [C,C]2 [F,C]2 [F,C]2 | [B,,B,]8 || %8
w: ~ ~ * ~ ~|~ Hal- le- lu-|jah!|
 [B,D]3 B, [F,A,][B,,B,] z2 | [B,,B,]3 [B,,F,] [B,,B,][B,,B,] z2 | %10
w: Hal- le- lu- jah!|Him I shall be;|
 [B,,F,]2 ([D,B,][F,A,]) [B,,B,]2 (A,G,) | [F,,A,]8 | [B,D]3 B, [F,A,][B,,B,] z2 | %13
w: Hal- le- * lu- jah! *|le-|lu- jah! For I|
 [B,,B,]3 [B,,F,] [B,,B,] [B,,B,]3 | [B,,F,]2 [D,B,][F,A,] B,<[B,D] [F,E]>[F,A,] | [B,,B,]8 |] %16
w: see Him as He|is! * * * * * *||
V:4
 x8 | x8 | x4 B,2 C,2 | F,,8 | x8 | x2 E,2 x4 | x8 | x8 || x3 B, x4 | x8 | x6 C,2 | x8 | x3 B, x4 | %13
w: ||~ ~|~||~|||Like||Hal-||shall|
 x8 | x4 B,/ x7/2 | x8 |] %16
w: |||

